X: 19660
T: Jemmy Duffy's
R: waltz
M: 3/4
K: Dmajor
DE|F3 E F|G4 B2|A2 D2 E2|F4 F2|F2 E2 F2|G4 B2|
A2 D2 E2|F4 DE|F3 E F2|G4 B2|A2 D2 E2|F4 F2|F2 E2 F2|
G2 E2 C2|E2 D2 C2|D4:|:A2|d3 e d2|c2 B2 c2|d2 c2 B2|
A4 F2|F2 E2 F2|G4 B2|A2 D2 E2|F4 AB/c/|d3 e d2|c2 B2 c2|
d2 c2 B2|A4 F2|F2 E2 F2|G2 E2 C2|E2 D2 C2|D4:|

